svg/100/outlined/avg_pace-fill.svg

<svg xmlns="http://www.w3.org/2000/svg" width="48" height="48" viewBox="0 -960 960 960"><path d="M594.803-758Q586-758 579-765.197t-7-16Q572-790 579.197-797t16-7Q604-804 611-796.803t7 16Q618-772 610.803-765t-16 7Zm-3 602Q583-156 576-163.197t-7-16Q569-188 576.197-195t16-7Q601-202 608-194.803t7 16Q615-170 607.803-163t-16 7Zm160-474Q743-630 736-637.197t-7-16Q729-662 736.197-669t16-7Q761-676 768-668.803t7 16Q775-644 767.803-637t-16 7Zm-3 349Q740-281 733-288.197t-7-16Q726-313 733.197-320t16-7Q758-327 765-319.803t7 16Q772-295 764.803-288t-16 7Zm53-176Q793-457 786-464.197t-7-16Q779-489 786.197-496t16-7Q811-503 818-495.803t7 16Q825-471 817.803-464t-16 7ZM480-132q-72 0-135.558-27.391-63.559-27.392-110.575-74.348-47.015-46.957-74.441-110.435Q132-407.652 132-479.826q0-72.174 27.405-135.732 27.405-63.559 74.385-110.574 46.98-47.016 110.49-74.442Q407.79-828 480-828v22q-136 0-231 94.716-95 94.715-95 231.187t94.744 231.285Q343.487-154 480-154v22Zm-.168-297Q458-429 443.5-443.619 429-458.237 429-480q0-8.312 1.5-15.156Q432-502 436-507.943L361-584l15-15 76 75q6-3 28-7 21.763 0 36.381 14.668Q531-501.664 531-479.832T516.332-443.5q-14.668 14.5-36.5 14.5Z"/></svg>

<svg xmlns="http://www.w3.org/2000/svg" width="48" height="48" viewBox="0 -960 960 960"><path d="M594.8-758q-8.8 0-15.8-7.2-7-7.19-7-16 0-8.8 7.2-15.8 7.19-7 16-7 8.8 0 15.8 7.2 7 7.19 7 16 0 8.8-7.2 15.8-7.19 7-16 7Zm-3 602q-8.8 0-15.8-7.2-7-7.19-7-16 0-8.8 7.2-15.8 7.19-7 16-7 8.8 0 15.8 7.2 7 7.19 7 16 0 8.8-7.2 15.8-7.19 7-16 7Zm160-474q-8.8 0-15.8-7.2-7-7.19-7-16 0-8.8 7.2-15.8 7.19-7 16-7 8.8 0 15.8 7.2 7 7.19 7 16 0 8.8-7.2 15.8-7.19 7-16 7Zm-3 349q-8.8 0-15.8-7.2-7-7.19-7-16 0-8.8 7.2-15.8 7.19-7 16-7 8.8 0 15.8 7.2 7 7.19 7 16 0 8.8-7.2 15.8-7.19 7-16 7Zm53-176q-8.8 0-15.8-7.2-7-7.19-7-16 0-8.8 7.2-15.8 7.19-7 16-7 8.8 0 15.8 7.2 7 7.19 7 16 0 8.8-7.2 15.8-7.19 7-16 7ZM480-132q-72 0-135.56-27.39t-110.57-74.35q-47.02-46.96-74.44-110.43Q132-407.65 132-479.83q0-72.17 27.4-135.73 27.41-63.56 74.39-110.57 46.98-47.02 110.49-74.44Q407.79-828 480-828v22q-136 0-231 94.72-95 94.71-95 231.18 0 136.47 94.74 231.29Q343.49-154 480-154v22Zm-.17-297q-21.83 0-36.33-14.62T429-480q0-8.31 1.5-15.16 1.5-6.84 5.5-12.78L361-584l15-15 76 75q6-3 28-7 21.76 0 36.38 14.67Q531-501.66 531-479.83t-14.67 36.33q-14.67 14.5-36.5 14.5Z"/></svg>
